svgs/thin/grate.svg

<svg xmlns="http://www.w3.org/2000/svg" viewBox="0 0 448 512"><!-- Font Awesome Pro 6.0.0-alpha2 by @fontawesome - https://fontawesome.com License - https://fontawesome.com/license (Commercial License) --><path d="M352 96H96C78.326 96 64 110.326 64 128V384C64 401.672 78.326 416 96 416H352C369.674 416 384 401.672 384 384V128C384 110.326 369.674 96 352 96ZM136 400H96C87.178 400 80 392.822 80 384V264H136V400ZM136 248H80V128C80 119.178 87.178 112 96 112H136V248ZM216 400H152V264H216V400ZM216 248H152V112H216V248ZM296 400H232V264H296V400ZM296 248H232V112H296V248ZM368 384C368 392.822 360.822 400 352 400H312V264H368V384ZM368 248H312V112H352C360.822 112 368 119.178 368 128V248ZM384 32H64C28.654 32 0 60.652 0 96V416C0 451.346 28.654 480 64 480H384C419.346 480 448 451.346 448 416V96C448 60.652 419.346 32 384 32ZM432 416C432 442.467 410.467 464 384 464H64C37.533 464 16 442.467 16 416V96C16 69.533 37.533 48 64 48H384C410.467 48 432 69.533 432 96V416Z"/></svg>

<svg xmlns="http://www.w3.org/2000/svg" viewBox="0 0 448 512"><!--! Font Awesome Pro 6.3.0 by @fontawesome - https://fontawesome.com License - https://fontawesome.com/license (Commercial License) Copyright 2023 Fonticons, Inc. --><path d="M352 96H96C78.33 96 64 110.3 64 128v256c0 17.67 14.33 32 32 32h256c17.67 0 32-14.33 32-32V128C384 110.3 369.7 96 352 96zM136 400H96c-8.822 0-16-7.178-16-16V264h56V400zM136 248H80V128c0-8.822 7.178-16 16-16h40V248zM216 400h-64V264h64V400zM216 248h-64V112h64V248zM296 400h-64V264h64V400zM296 248h-64V112h64V248zM368 384c0 8.822-7.178 16-16 16h-40V264h56V384zM368 248h-56V112H352c8.822 0 16 7.178 16 16V248zM384 32H64C28.65 32 0 60.65 0 96v320c0 35.35 28.65 64 64 64h320c35.35 0 64-28.65 64-64V96C448 60.65 419.3 32 384 32zM432 416c0 26.47-21.53 48-48 48H64c-26.47 0-48-21.53-48-48V96c0-26.47 21.53-48 48-48h320c26.47 0 48 21.53 48 48V416z"/></svg>
